source/img/icons/icon-auto-repair-service.svg

<svg width="57" height="56" viewBox="0 0 57 56" fill="none" xmlns="http://www.w3.org/2000/svg">
<path d="M20.6913 44.5867C14.4128 41.542 10.3561 35.0691 10.3561 28.0961C10.3561 21.9294 13.4311 16.2141 18.5817 12.8077C19.2316 12.3779 19.41 11.5026 18.9802 10.8527C18.5504 10.2028 17.6752 10.0244 17.0251 10.4542C16.7344 10.6467 16.4494 10.8452 16.1701 11.0501L13.3836 8.71177C11.7744 7.36165 9.36648 7.57217 8.01621 9.1814L6.42971 11.0725C5.77699 11.8501 5.46646 12.8377 5.55518 13.8533C5.64406 14.869 6.12137 15.7878 6.89903 16.44L9.69034 18.7824C9.02006 20.1488 8.49697 21.59 8.13424 23.081H4.48173C2.38108 23.081 0.671997 24.7901 0.671997 26.8908V29.3596C0.671997 31.4603 2.38108 33.1694 4.48173 33.1694H8.14898C8.51312 34.6469 9.03652 36.0814 9.71228 37.4495L6.8995 39.8101C6.12153 40.4626 5.64422 41.3812 5.55534 42.3971C5.46661 43.4127 5.77714 44.4003 6.42955 45.1775L8.01637 47.0692C8.76894 47.9658 9.84975 48.4279 10.9379 48.4279C11.8023 48.4279 12.6715 48.136 13.3839 47.5385L16.207 45.1695C17.2264 45.9144 18.3146 46.5698 19.4601 47.1253C20.1613 47.465 21.0051 47.1725 21.3451 46.4715C21.6851 45.7705 21.3923 44.9265 20.6913 44.5867ZM4.48173 30.348C3.93686 30.348 3.49356 29.9047 3.49356 29.3598V26.8909C3.49356 26.3461 3.93686 25.9028 4.48173 25.9028H7.64752C7.5726 26.6266 7.5345 27.3585 7.5345 28.0961C7.5345 28.8516 7.57448 29.6031 7.65364 30.348H4.48173ZM8.71251 14.2782C8.51233 14.1104 8.38928 13.8721 8.36608 13.6075C8.34304 13.3427 8.42283 13.0866 8.59118 12.8861L10.1778 10.9949C10.373 10.7623 10.6533 10.6423 10.9354 10.6423C11.1597 10.6423 11.3852 10.7181 11.57 10.8731L13.98 12.8957C12.9043 13.934 11.9488 15.0763 11.1242 16.3021L8.71251 14.2782ZM11.5703 45.377C11.1525 45.7274 10.5277 45.6727 10.1777 45.2557L8.59102 43.3638C8.42298 43.1637 8.34304 42.9075 8.36624 42.6428C8.38944 42.3782 8.51249 42.1399 8.71298 41.9716L11.1521 39.9247C11.9882 41.1613 12.948 42.3004 14.0138 43.3267L11.5703 45.377ZM52.8624 23.081H49.2127C48.8508 21.5875 48.3283 20.1452 47.6584 18.7788L50.4451 16.4402C52.0542 15.0901 52.2649 12.6822 50.9148 11.0726L49.3279 9.1814C47.9777 7.57217 45.5698 7.3615 43.9606 8.71177L41.1743 11.0499C40.806 10.7801 40.4272 10.5207 40.0389 10.2726C39.3823 9.85309 38.5099 10.0453 38.0905 10.7019C37.671 11.3586 37.8632 12.2309 38.5198 12.6504C43.8221 16.038 46.9878 21.812 46.9878 28.0961C46.9878 35.2108 42.8139 41.7392 36.3542 44.7282C35.6471 45.0554 35.3391 45.894 35.6663 46.601C35.9934 47.3081 36.8322 47.6162 37.539 47.2889C38.8192 46.6966 40.0215 45.9838 41.1351 45.1678L43.9604 47.5385C44.6507 48.1179 45.5066 48.4276 46.4007 48.4276C46.5138 48.4276 46.6272 48.4226 46.7412 48.4127C47.7568 48.3238 48.6755 47.8467 49.3279 47.069L50.9148 45.1779C52.265 43.5686 52.0545 41.1608 50.4451 39.8104L47.62 37.4395C48.2906 36.0825 48.8177 34.6516 49.1866 33.1695H52.8623C54.9629 33.1695 56.672 31.4605 56.672 29.3598V26.8909C56.6722 24.7901 54.9631 23.081 52.8624 23.081ZM48.6316 41.9716C49.0491 42.3219 49.1038 42.9466 48.7534 43.3642L47.1666 45.2552C46.9986 45.4554 46.7603 45.5784 46.4956 45.6015C46.23 45.6244 45.9747 45.5449 45.7743 45.3767L43.3251 43.3215C44.3962 42.2868 45.3531 41.1439 46.1819 39.9156L48.6316 41.9716ZM46.2245 16.2988C45.3999 15.0739 44.443 13.9318 43.3661 12.8941L45.7743 10.8734C46.1918 10.5232 46.8163 10.5778 47.1666 10.995L48.7533 12.8861C49.1036 13.3037 49.0491 13.9285 48.6316 14.2789L46.2245 16.2988ZM53.8506 29.3596C53.8506 29.9045 53.4073 30.3478 52.8624 30.3478H49.688C49.7683 29.6048 49.8092 28.853 49.8092 28.0959C49.8092 27.3581 49.7712 26.626 49.6969 25.9026H52.8623C53.4071 25.9026 53.8504 26.3459 53.8504 26.8908V29.3596H53.8506ZM38.1695 28.0959C38.1695 24.7895 36.4905 21.7717 33.6778 20.0234C33.0162 19.6121 32.8132 18.7423 33.2245 18.0805C33.6358 17.419 34.5057 17.2156 35.1675 17.6271C38.814 19.8938 40.991 23.8073 40.991 28.0959C40.991 31.0118 39.9535 33.8404 38.0698 36.061C37.7907 36.3899 37.3934 36.5592 36.9933 36.5592C36.6707 36.5592 36.3466 36.4491 36.0813 36.2242C35.4871 35.7202 35.4142 34.8299 35.9182 34.2358C37.3699 32.5243 38.1695 30.3441 38.1695 28.0959ZM21.5849 34.4182C22.104 34.9995 22.0533 35.8912 21.4721 36.4103C21.2031 36.6504 20.8673 36.7686 20.533 36.7686C20.145 36.7686 19.7588 36.6095 19.4801 36.2974C17.4639 34.0387 16.3535 31.1261 16.3535 28.0961C16.3535 23.5363 18.8546 19.3693 22.8808 17.2211C23.5682 16.8545 24.4228 17.1142 24.7896 17.8017C25.1564 18.4891 24.8965 19.3437 24.209 19.7105C21.104 21.3671 19.1752 24.5802 19.1752 28.0961C19.175 30.4322 20.0309 32.6775 21.5849 34.4182ZM30.0592 32.6402C30.0749 32.5558 30.083 32.469 30.083 32.3801V14.9076L35.2016 11.9523C35.6382 11.7003 35.907 11.2346 35.907 10.7306V4.00525C35.907 3.50129 35.6382 3.03542 35.2016 2.78351L32.2898 1.10233C31.6151 0.7128 30.752 0.943855 30.3627 1.61868C29.9731 2.2935 30.2043 3.15627 30.879 3.5458L33.0855 4.81974V9.91595L28.6722 12.464L24.2587 9.91611V4.8199L26.4655 3.54596C27.1403 3.15643 27.3715 2.29366 26.982 1.61883C26.5924 0.944011 25.7295 0.7128 25.0548 1.10233L22.1425 2.78351C21.706 3.03542 21.4371 3.50129 21.4371 4.00525V10.7306C21.4371 11.2346 21.706 11.7004 22.1425 11.9523L27.2615 14.9076V32.3801C27.2615 32.469 27.2696 32.5558 27.2853 32.6402C25.3762 33.2327 23.9859 35.0153 23.9859 37.1166V52.0709C23.9859 53.872 25.451 55.3371 27.2516 55.3371H30.0919C31.893 55.3371 33.3582 53.872 33.3582 52.0709V37.1166C33.3584 35.0153 31.9681 33.2327 30.0592 32.6402ZM30.5368 52.0709C30.5368 52.312 30.3332 52.5156 30.0921 52.5156H27.2517C27.011 52.5156 26.8077 52.312 26.8077 52.0709V37.1166C26.8077 36.0886 27.6441 35.2523 28.6724 35.2523C29.7007 35.2523 30.5371 36.0886 30.5371 37.1166V52.0709H30.5368Z" fill="white"/>
</svg>

<svg width="57" height="56" fill="none" xmlns="http://www.w3.org/2000/svg"><path d="M20.691 44.587c-6.278-3.045-10.335-9.518-10.335-16.49a18.288 18.288 0 0 1 8.226-15.29 1.41 1.41 0 1 0-1.557-2.353c-.29.193-.576.391-.855.596l-2.786-2.338a3.814 3.814 0 0 0-5.368.47l-1.586 1.89a3.784 3.784 0 0 0-.875 2.781A3.783 3.783 0 0 0 6.9 16.44l2.791 2.342a21.07 21.07 0 0 0-1.556 4.299H4.482c-2.1 0-3.81 1.71-3.81 3.81v2.469c0 2.1 1.71 3.81 3.81 3.81h3.667a21.02 21.02 0 0 0 1.563 4.28L6.9 39.81a3.783 3.783 0 0 0-1.344 2.587 3.783 3.783 0 0 0 .875 2.78l1.586 1.892a3.803 3.803 0 0 0 2.922 1.359c.864 0 1.733-.292 2.446-.89l2.823-2.368c1.02.744 2.108 1.4 3.253 1.955a1.411 1.411 0 0 0 1.231-2.538zM4.481 30.348a.99.99 0 0 1-.987-.988v-2.47a.99.99 0 0 1 .988-.987h3.166a21.3 21.3 0 0 0 .006 4.445H4.482zm4.232-16.07a.98.98 0 0 1-.347-.67.98.98 0 0 1 .225-.722l1.587-1.891a.986.986 0 0 1 1.392-.122l2.41 2.023a21.109 21.109 0 0 0-2.856 3.406l-2.411-2.024zm2.857 31.099a.99.99 0 0 1-1.392-.121L8.59 43.364a.98.98 0 0 1-.225-.721.981.981 0 0 1 .347-.671l2.44-2.047a21.23 21.23 0 0 0 2.86 3.402l-2.443 2.05zm41.292-22.296h-3.65a21.017 21.017 0 0 0-1.554-4.302l2.787-2.339a3.815 3.815 0 0 0 .47-5.367L49.328 9.18a3.814 3.814 0 0 0-5.367-.47l-2.787 2.339c-.368-.27-.747-.53-1.135-.777a1.41 1.41 0 1 0-1.52 2.377c5.303 3.388 8.469 9.162 8.469 15.446 0 7.115-4.174 13.643-10.634 16.632a1.41 1.41 0 0 0 1.185 2.56 21.003 21.003 0 0 0 3.596-2.12l2.825 2.37a3.776 3.776 0 0 0 2.781.875 3.783 3.783 0 0 0 2.587-1.344l1.587-1.891a3.814 3.814 0 0 0-.47-5.368l-2.825-2.37a21.192 21.192 0 0 0 1.567-4.27h3.675c2.1 0 3.81-1.71 3.81-3.81v-2.47c0-2.1-1.709-3.809-3.81-3.809zm-4.23 18.89a.99.99 0 0 1 .121 1.393l-1.586 1.891a.98.98 0 0 1-.671.346.98.98 0 0 1-.722-.224l-2.449-2.056a21.303 21.303 0 0 0 2.857-3.405l2.45 2.056zM46.225 16.3a21.065 21.065 0 0 0-2.859-3.405l2.408-2.02a.99.99 0 0 1 1.393.121l1.586 1.891a.99.99 0 0 1-.121 1.393l-2.407 2.02zm7.626 13.06a.99.99 0 0 1-.989.989h-3.174c.08-.743.121-1.495.121-2.252 0-.738-.038-1.47-.112-2.193h3.165a.99.99 0 0 1 .988.988v2.469zM38.17 28.097a9.45 9.45 0 0 0-4.492-8.073 1.41 1.41 0 0 1 1.49-2.396 12.255 12.255 0 0 1 5.823 10.469c0 2.916-1.038 5.744-2.921 7.965a1.408 1.408 0 0 1-1.989.163 1.41 1.41 0 0 1-.163-1.988 9.5 9.5 0 0 0 2.252-6.14zm-16.585 6.322a1.41 1.41 0 1 1-2.105 1.88 12.3 12.3 0 0 1-3.127-8.202c0-4.56 2.502-8.727 6.528-10.875a1.41 1.41 0 0 1 1.328 2.49 9.489 9.489 0 0 0-5.034 8.385 9.48 9.48 0 0 0 2.41 6.322zm8.474-1.778a1.42 1.42 0 0 0 .024-.26V14.908l5.119-2.956a1.41 1.41 0 0 0 .705-1.221V4.005c0-.504-.269-.97-.705-1.221L32.29 1.102a1.41 1.41 0 1 0-1.411 2.444l2.207 1.274v5.096l-4.414 2.548-4.413-2.548V4.82l2.206-1.274a1.41 1.41 0 1 0-1.41-2.444l-2.913 1.682a1.41 1.41 0 0 0-.705 1.221v6.726c0 .504.269.97.705 1.221l5.12 2.956V32.38c0 .089.008.176.023.26a4.694 4.694 0 0 0-3.3 4.477V52.07a3.27 3.27 0 0 0 3.267 3.266h2.84a3.27 3.27 0 0 0 3.266-3.266V37.117a4.694 4.694 0 0 0-3.299-4.477zm.478 19.43a.45.45 0 0 1-.445.446h-2.84a.45.45 0 0 1-.444-.445V37.117c0-1.028.836-1.865 1.864-1.865 1.029 0 1.865.837 1.865 1.865V52.07z" fill="#fff"/></svg>
